!!!COM: Schubert, Franz
!!!CNT: Deutscher
!!!TXO: Deutsch
!!!OTL: "Aufenthalt"
!!!OPR: Schwanengesang
!!!LYR: Rellstab, Ludwig
!!!ONM: No. 5
!!!ODT: 1828/
!!NB: Vocal melody only encoded.
**kern	**silbe
*clefG2	*
*k[f#]	*
*M2/4	*
*MM[geschwind]	*
=7	=7
{4e	{Rau-
8.e	-schen-
16e	-der
=8	=8
4B	Strom,
4r	.
=9	=9
4f#	brau-
8g	-sen-
8f#	-der
=10	=10
4e}	Wald,}
4r	.
=11	=11
{4b	{star-
8a	-ren-
8b	-der
=12	=12
4.cc	Fels
8a	mein
=13	=13
4f#	Auf-
4b	-ent-
=14	=14
4g}	-halt,}
4r	.
=15	=15
{4ee	{rau-
8.ee	-schen-
16ee	-der
=16	=16
(4ee	Strom,
8e)	|
8r	.
=17	=17
4ee	brau-
8.ee	-sen-
16ee	-der
=18	=18
(4ee	Wald,
8e)}	|}
8r	.
=19	=19
{4b	{star-
8a	-ren-
8b	-der
=20	=20
4.cc	Fels
8a	mein
=21	=21
4b	Auf-
4B	-ent-
=22	=22
4e}	-halt.}
4r	.
=27	=27
{4B	{Wie
8.g	sich
16g	die
=28	=28
4f#	Wel-
8B	-le
8B	an
=29	=29
4.B	Wel-
8a	-le
=30	=30
4g}	reiht,}
4r	.
=31	=31
{4B	{flie-
8.b	-ssen
16b	die
=32	=32
4a	Thra2-
8B	-nen
8B	mir
=33	=33
4B	e-
8cc	-wig
8cc	er-
=34	=34
4b}	-neut,}
4r	.
=35	=35
{2dd	{flie-
=36	=36
4dd	-ssen
4dd	die
=37	=37
[2ee	Thra2-
=38	=38
2ee]	|
=39	=39
2cc#}	-nen}
=40	=40
4r	.
{4cc#	{mir
=41	=41
4dd	e-
4b	-wig,
=42	=42
4cc#	e-
8a#	-wig
8a#	er-
=43	=43
2b}	-neut,}
=44	=44
{4gg	{flie-
8gg	-ssen
8gg	die
=45	=45
4ff#	Thra2-
8ee	-nen
8ee	mir
=46	=46
4dd	e-
8cc#	-wig
8cc#	er-
=47	=47
4b}	-neut}
4r	.
=56	=56
{4g	{Hoch
8.b	in
16cc	den
=57	=57
4dd	Kro-
8b	-nen
8g	|
=58	=58
4ee	wo-
8.ee	-gend
16ee	sich's
=59	=59
4.a}	regt,}
{8a	{so
=60	=60
4cc	un-
4b	-auf-
=61	=61
4a	-ho2r-
8b	-lich
8cc	mein
=62	=62
(4dd	Her-
8ee)	|
8cc	-ze
=63	=63
4b}	schla2gt,}
4r	.
=64	=64
{4ee	{hoch
8.gg	in
16ff	den
=65	=65
4ee	Kro-
4e	-nen
=66	=66
4ee	wo-
8.gg	-gend
16ff	sich's
=67	=67
4.ee}	regt,}
{8b	{so
=68	=68
4cc	un-
4b	-auf-
=69	=69
4a	-ho2r-
8b	-lich
8cc	mein
=70	=70
(4dd	Her-
8ee)	|
8cc	-ze
=71	=71
4b}	schla2gt,}
8r	.
{8dd	{so
=72	=72
4ee-	un-
4dd	-auf-
=73	=73
4cc	-ho2r-
8b	-lich
8cc	mein
=74	=74
([2dd	Her-
=75	=75
12dd]	|
12een	|
12cc	|
12b	|
12cc)	|
12a	-ze
=76	=76
4g}	schla2gt.}
4r	.
=81	=81
4r	.
8r	.
{8B	{Und
=82	=82
4.B	wie
8g	des
=83	=83
4f#	Fel-
8B	-sen
8B	ur-
=84	=84
4.B	-al-
8a	-tes
=85	=85
4g}	Erz,}
4r	.
=86	=86
{4B	{e-
8b	-wig
8b	der-
=87	=87
4a	-sel-
4B	-be
=88	=88
4B	blei-
8cc	-bet
8cc	mein
=89	=89
4b}	Schmerz,}
4r	.
=90	=90
{2dd	{e-
=91	=91
4dd	-wig
4dd	der-
=92	=92
[2ee	-sel-
=93	=93
2ee]	|
=94	=94
2cc#}	-be}
=96	=96
{4dd	{blei-
4b	-bet,
=97	=97
4cc#	blei-
8a#	-bet
8a#	mein
=98	=98
4b}	Schmerz,}
4r	.
=99	=99
{4gg	{e-
8.gg	-wig
16gg	der-
=100	=100
4ff#	-sel-
4ee	-be
=101	=101
4dd	blei-
8cc#	-bet
8cc#	mein
=102	=102
4b}	Schmerz.}
4r	.
=111	=111
{4e	{Rau-
8.e	-schen-
16e	-der
=112	=112
4B	Strom,
4r	.
=113	=113
4f#	brau-
8.g	-sen-
16f#	-der
=114	=114
4e}	Wald,}
4r	.
=115	=115
{4b	{star-
8.a	-ren-
16b	-der
=116	=116
4.cc	Fels
8a	mein
=117	=117
4f#	Auf-
4b	-ent-
=118	=118
4g}	-halt,}
4r	.
=119	=119
{4ee	{rau-
8.ee	-schen-
16ee	-der
=120	=120
(4ee	Strom,
8e)	|
8r	.
=121	=121
4ee	brau-
8.ee	-sen-
16ee	-der
=122	=122
(4ee	Wald,
8e)}	|}
8r	.
=123	=123
{4ee	{star-
8.ee	-ren-
16ee	-der
=124	=124
[2gg	Fels,
=125	=125
2gg_	|
=126	=126
4gg]}	|}
4r	.
=127	=127
{4g	{rau-
8.g	-schen-
16a	-der
=128	=128
[2b	Strom,
=129	=129
4b]}	|}
4r	.
=130	=130
{[2b	{brau-
=131	=131
8b]	|
8ee	|
8gg	-sen-
8ff#	-der
=132	=132
4.ee	Wald
8b	mein
=133	=133
8a	Auf-
8g	|
8a	-ent-
8b	|
=134	=134
[2e	-halt.
=135	=135
4e]}	|}
4r	.
*-	*-
